icons/lines/driver.svg

<svg xmlns="http://www.w3.org/2000/svg" width="24" height="24" viewBox="0 0 24 24" fill="none" stroke="currentColor" stroke-width="2" stroke-linecap="round" stroke-linejoin="round" >
  <path d="M19.3198 10H4.68977C3.20977 10 2.00977 8.79002 2.00977 7.32002V4.69002C2.00977 3.21002 3.21977 2.01001 4.68977 2.01001H19.3198C20.7998 2.01001 21.9998 3.22002 21.9998 4.69002V7.32002C21.9998 8.79002 20.7898 10 19.3198 10Z"/>
  <path d="M19.3198 22H4.68977C3.20977 22 2.00977 20.79 2.00977 19.32V16.69C2.00977 15.21 3.21977 14.01 4.68977 14.01H19.3198C20.7998 14.01 21.9998 15.22 21.9998 16.69V19.32C21.9998 20.79 20.7898 22 19.3198 22Z"/>
  <path d="M6 5V7"/>
  <path d="M10 5V7"/>
  <path d="M6 17V19"/>
  <path d="M10 17V19"/>
  <path d="M14 6H18"/>
  <path d="M14 18H18"/>
  </svg>

<svg xmlns="http://www.w3.org/2000/svg" width="24" height="24" viewBox="0 0 24 24" fill="none" stroke="currentColor" stroke-width="2" stroke-linecap="round" stroke-linejoin="round">
  <path d="M10 17v2" />
  <path d="M10 5v2" />
  <path d="M14 18h4" />
  <path d="M14 6h4" />
  <path d="M4.69 10a2.687 2.687 0 0 1-2.68-2.68V4.69a2.687 2.687 0 0 1 2.68-2.68h14.63A2.687 2.687 0 0 1 22 4.69v2.63A2.693 2.693 0 0 1 19.32 10z" />
  <path d="M4.69 22a2.687 2.687 0 0 1-2.68-2.68v-2.63a2.687 2.687 0 0 1 2.68-2.68h14.63A2.687 2.687 0 0 1 22 16.69v2.63A2.693 2.693 0 0 1 19.32 22z" />
  <path d="M6 17v2" />
  <path d="M6 5v2" />
</svg>
